X:1
T:The Well-Tempered Clavier Book II - III
T:BWV 872    (A = 415 Hz)
T:J. S. Bach
%%score { ( 1 2 5 ) | ( 3 4 ) }
L:1/8
M:4/4
K:F#
V:1 treble 
V:2 treble 
V:5 treble 
V:3 bass 
V:4 bass 
V:1
"^Praeludium" z/ E/G/c/- c2 z/ E/G/c/- c2 | z/ F/A/c/- c2 z/ F/G/d/- d2 | %2
 z/ E/G/d/- d2 z/ E/G/c/- c2 | z/ D/^^F/A/- A2 z/ D/G/^B/- B2 | z/ E/A/c/- c2 z/ D/A/c/- c2 | %5
 z/ D/A/c/- c2 z/ D/G/^B/- B2 | z/ E/A/^^c/- c2 z/ D/A/d/- d2 | z/ E/^^G/d/- d2 z/ E/A/c/- c2 | %8
 z/ F/^B/d/- d2 z/ G/B/e/- e2 | z/ F/c/e/- e2 z/ F/G/d/- d2 | z/ F/G/d/- d2 z/ E/G/c/- c2 | %11
 z/ D/F/c/- c2 z/ D/F/B/- B2 | z/ C/E/B/- B2 z/ C/F/A/- A2 | z/ D/F/G/- G2 z/ A,/E/G/- G2 | %14
 z/ ^^C/E/G/- G2 z/ ^C/D/^^F/- F2 | z/ ^B,/D/^F/- F2 z/ =B,/C/E/- E2 | %16
 z/ A,/C/E/- E2 z/ A,/C/D/- D2 | z/ G,/^B,/D/- D2 z/ G,/C/E/- E2 | z/ A,/D/F/- F2 z/ G,/D/F/- F2 | %19
 z/ G,/D/F/- F2 z/ G,/C/E/- E2 | z/ A,/D/^^F/- F2 z/ B,/D/G/- G2 | %21
 z/ B,/D/G/- G2 z/ B,/^^C/G/- G2 | z/ B,/D/G/- G2 z/ ^^C/E/G/- G2 | %23
 z/ C/=E/G/- G2 z/ C/D/^^F/- F2 |[M:3/8][Q:1/4=132]"^Allegro" GD/C/D/E/ |{E} F3- | FEA | %27
 DG/4F/4 G3/2- | GF/E/F/G/ |{F} E3 | DG/^^F/G/A/ | ^B/G/c/d/c/B/ | A/^B/c/4B/4c/4B/4c/4B/4c/ | %33
 ced | cf/g/f/e/ | d2- d/d/ | c>^Bc/d/ | Gc/d/c/^B/ | A^B>B | c2- c/c/ | ^B z z | z A/G/A/^B/ | %42
 c3- | c^Be | A2 d | G2 c- | c^B/A/B/d/ | GcF | E D2 | !fermata!C3 |[M:4/4] z8 |"^Fuga" z4 z G^BG | %52
 c z B z A/G/F- F/G/A/F/ | G z c z c z ^B z | z cec g z f z | e/d/c- c/d/e/c/ z/ d/f/d/ g z | %56
 f z e>e ^^fg- g/g/f | g z z2 z4 | z EGE A z G z | F/G/A/^B/ ^^c/d/e/4d/4c/ d z z d | %60
 ^BdGc A z B z | cgeg c z z/ B/A/G/ | A2- A/A/d G2- G/G/c | F2- F/E/F E2- E/D/E- | E>E D2 E z z e | %65
 ce A z z a^^fa | d z e z f/g/a- a/g/f/g/ | e/f/g- g/f/e/f/ d/g/f/e/ d/c/^B/4c/4d/ | %68
 c/A/^B/c/ d/e/f/4e/4d/ c/B/A/G/ c z | A z f z z/ f/e/d/ e/4f/4g/c/4d/4e/ | %70
 A/e/d/c/ d/4e/4f/^B/4c/4d/ G/d/c/B/ c/4d/4e/G/4A/4=B/ | A>F G>E F>D E2- | %72
 E2- E/D/F/D/ ^B,B,/D/ G>F | EE/G/ c>B AA/c/ f2- | f/A/^B/c/ d/e/f/4e/4d/ e/f/e/d/ c/B/A/4B/4c/ | %75
 ^Bgeg c/e/f/g/ a/^b/c'/a/ | f/g/f/e/ d/c/^B/4c/4d/ G G3- | %77
 G/C/D/E/ F/G/A/F/ D/E/F/G/ A/^B/c/4B/4A/ | ^Bd/c/ Bd Gc=ec | %79
 f/=a/g/f/ =e/d/c/4d/4e/ ^^F/G/A/^B/ c/d/e/4d/4c/ | ^Bd g4 f2- | %81
 f2 e2- e-e/4d/4c/4=B/4 A/4G/4F/4E/4F- | F2- FE- E/4E/4D/4C/4D- D2- | %83
 DC- C/C/^B, C2- C/G,/=B,/G,/ | A,2- A,/A,/C/A,/ D2- D/E/F- | F/E/D/F/- F/A/G/F/ !fermata!E4 |] %86
V:2
 z2 G/F/G/E/ z2 G/F/G/E/ | z2 A/G/A/F/ z2 G/F/G/E/ | z2 G/F/G/F/ z2 G/F/G/E/ | %3
 z2 ^^F/E/F/D/ z2 G/F/G/D/ | z2 A/G/A/E/ z2 A/G/A/D/ | z2 A/G/A/D/ z2 G/^^F/G/D/ | %6
 z2 A/G/A/E/ z2 A/G/A/D/ | z2 ^^G/^^F/G/E/ z2 A/^^G/A/E/ | z2 ^B/A/B/F/ z2 B/A/B/G/ | %9
 z2 c/^B/c/F/ z2 G/F/G/F/ | z2 G/F/G/F/ z2 G/F/G/E/ | z2 F/E/F/D/ z2 F/E/F/D/ | %12
 z2 E/D/E/C/ z2 F/E/F/C/ | z2 F/E/F/D/ z2 E/D/E/^^C/ | z2 E/D/E/^^C/ z2 D/^C/D/C/ | %15
 z2 D/C/D/^B,/ z2 C/=B,/C/B,/ | z2 C/^B,/C/A,/ z2 C/B,/C/A,/ | z2 ^B,/A,/B,/G,/ z2 C/B,/C/G,/ | %18
 z2 D/C/D/A,/ z2 D/C/D/G,/ | z2 D/C/D/G,/ z2 C/^B,/C/G,/ | z2 D/C/D/A,/ z2 D/C/D/=B,/ | %21
 z2 D/C/D/=B,/ z2 D/^^C/D/C/ | z2 D/^C/D/=B,/ z2 E/D/E/^^C/ | z2 =E/D/=E/C/ z2 D/C/D/C/ | %24
[M:3/8] x3 | x3 | x3 | x3 | x3 | x3 | x3 | x3 | F3- | F<EG- | G/E/C/E/D/C/ | ^B,^BE- | E/E/ F2- | %37
 F/E/- E2 | ^^F/D/G/F/G- | G/G/^^F/E/^F | GD/C/D/E/ | F3- | FEA | ^^G2 ^G- | G^^F^F- | FE=E | D3- | %47
 DCD- | D/CA,/^B, |[I:staff +1] G,3 |[M:4/4] x8 | x8 |[I:staff -1] z GEG C z D z | %53
 E/F/G- G/F/E/G/ D/E/F- F/E/D/F/ | E z z2 z G^BG | c z ^B z A z z/ A/^^c/A/ | %56
 d z z/ d/^c- c/^BB/ A>c | ^B z z2 z G,^B,G, | %58
 C z B, z[I:staff +1] A,/^B,/[I:staff -1]^^C/D/ E/F/G/4F/4E/ | %59
 F z[I:staff +1] E[I:staff -1] z z AFA | DFEG- G/G/F/E/[I:staff +1] D/C/^B,/4C/4D/ | %61
[I:staff -1] G, z z[I:staff +1] C[I:staff -1] EC G z | z/ G/F/E/ F>F- F/-F/E/D/ E>E- | %63
 E/E/D/C/ D>D- D/D/C/^B,/ C>B, | A,/^^G,/A,- A,/C/^B,/A,/ G, z z2 | %65
 z[I:staff +1] A,^^CA, D[I:staff -1] z[I:staff +1] ^C[I:staff -1] z | %66
[I:staff +1] ^B,/A,/G,- G,/A,/=B,/4A,/4G,/ A,/^B,/C/4B,/4A,/ B,/C/D/4C/4B,/ | C4- CC^B,E | %68
 A,3 D G,2[I:staff -1] z/ G/E/G/ | C z z/[I:staff +1] ^B,/G,/B,/ CG, C2- | %70
 CA, F,2 F,G,E,[I:staff -1]E- | E/C/D- D/^B,/C- C/A,/B, z/ C/G,/=B,/ | A,4 z/ G,3/2- G,/C/^B, | %73
 z/ C3/2- C/F/E z/ F3/2- F/B/A/d/ | G z z2 z/[I:staff +1] ^B,/C/D/ E/^^F/G/F/ | %75
 G[I:staff -1] z[I:staff +1] C2 E2 C2 | F[I:staff -1] z z F- F/A/G/F/ E/D/C/4D/4E/ | %77
 A,2 z D[I:staff +1] A,DF,[I:staff -1]F- | F/G/F/[I:staff +1]=E/ D/C/^B,/D/ E/F/E/D/ C/B,/A,/C/ | %79
 ^B,DC=E[I:staff -1] z2 z ^^F | G z z e ^^ceAd | ^BdGc A/c/F z z/4 E/4D/4C/4 | %82
 z/ D3/2- DC- C-C/4C/4^B,/4A,/4 B,2- | B,/G,^^F,/ G,>^F,- F,/[I:staff +1]F,/^E,/D,/ E,2- | %84
 E,/G,/F,/E,/ F,2- F,2[I:staff -1] z z/ G,/ | A,2 ^B,2 [G,C]4 |] %86
V:3
 G,G,CC B,B,B,B, | A,A,F,F, ^B,B,B,B, | CCCC G,G,E,E, | A,A,A,A, G,G,D,G, | G,G,G,G, ^^F,F,F,F, | %5
 G,^^F,E,F, G,G,^B,B, | A,E,^^C,A,, D,D,F,F, | ^B,,B,,E,E, E,E,CC | ^B,FDB, EEEE | CCA,A, DD^B,B, | %10
 G,G,^B,B, CC=B,B, | A,A,A,A, B,B,B,B, | G,G,G,G, A,A,A,A, | D,D,D,D, E,E,A,A, | %14
 B,B,B,B, A,A,A,A, | G,G,G,G, G,G,G,G, | F,F,F,F, F,F,F,F, | D,D,D,D, C,C,G,,C, | %18
 C,C,^B,,A,, B,,B,,B,,B,, | C,^B,,A,,B,, C,C,E,E, | D,^^F,A,F, D,D,G,G, | G,G,G,G, G,G,G,G, | %22
 G,G,G,G, B,B,B,B, | A,A,A,A, A,A,A,A, |[M:3/8] G, z z | z A,/G,/A,/^B,/ |{^B,} C3- | C^B,E | %28
 A,E/4D/4 E3/2- | E C2- | C^B,/A,/B,/C/ | DG,C | D,G,G,, | C,C/D/C/^B,/ | A,3- | %35
 A,/A,/^^G,/^^F,/G,/E,/ | A,A,,/G,,/A,,/^B,,/ | C,3- | C,^B,,E, | A,,D,D,, | %40
 G,,/^^F,,/G,,/A,,/^B,,/C,/ | D,/^^C,/D,/E,/F,/G,/ | A,/^^G,/A,/^B,/C/D/ | E/D/E/F/E/D/ | %44
 ^^C/A,/D/E/D/^C/ | ^B,/G,/C/=B,/A,/G,/ | ^^F,/D,/G,/A,/G,/^F,/ | E,/F,/E,/D,/E,/F,/ | G,F,,G,, | %49
 !fermata!C,,3 |[M:4/4] z8 | z C,E,C, G, z F, z | E,/D,/C,- C,/D,/E,/C,/ F, z F,, z | %53
 z C,A,,C, F,,A,,D,,G,, | C,, z z C ^B,DG, z | z C,E,C, F, z E, z | %56
 z/ D,/^B,,/D,/ ^^G,,A,, D,,E,,C,,D,, | z G,,^B,,G,, C, z B,, z | %58
 A,,/^B,,/C,/D,/ E,/F,/G,/4F,/4E,/ F, z ^^C, z | D, z z A, F,A,D,^^F, | %60
 G,/G,,/A,,/^B,,/ C,/D,/E,/4D,/4C,/ F,D, z G, | E,G,C, z z C,E,C, | F,A,D,F, ^B,,G,C,E, | %63
 A,,F,^B,,D, ^^G,,E,,A,,^G,, | F,,E,, G,,/4F,,/4G,,/4F,,/4G,,/4F,,/4G,,/4F,,/4 E,,E,^^G,E, | %65
 A, z G, z ^^F,/E,/D,- D,/E,/F,/4E,/4D,/ | G, z z2 z4 | z C,E,C, G,4- | G,G, F,2- F,F, E, z | %69
 z/ A,/F,/A,/ D, z C, z z/ C,/E,/C,/ | F, z z D, ^B,, z z C, | F,,F,E,A,, D,G,,C,C,, | %72
 F,,/C,/A,,/C,/ F,2- F,F,E,G, | C,B,A,C F,E,D,F, | =C,G,^B,G, C z A, z | %75
 z/ G,/A,/^B,/ C/D/E/C/ A,A,CA, | DD,^B,,D, E,E,,C,,E,, | F,,2 D,2 F,2 D,2 | G,8- | G,8- | %80
 G,/A,/G,/F,/ E,/D,/^^C,/4D,/4E,/ A,,/A,/^B,/^^C/ D/E/F/4E/4D/ | %81
 G/F/E/D/ C/B,/A,/4B,/4C/ F,D,,F,,D,, | z z/4 F,/4E,/4D,/4 E,/4D,/4C,/4^B,,/4C, z ^^F, G,2 | %83
 E,=E, D,2 C,4- | C,4- C,/C,/^B,,/A,,/ B,,2 | C,2 D,2 !fermata!C,4 |] %86
V:4
 C,2 z2 C,2 z2 | C,2 z2 C,2 z2 | C,2 z2 C,2 z2 | C,2 z2 ^B,,2 z2 | A,,2 z2 D,2 z2 | %5
 G,,2 z2 G,,2 z2 | G,,2 z2 F,,2 z2 | E,,2 z2 A,,2 z2 | A,2 z2 G,2 z2 | A,2 z2 ^B,2 z2 | %10
 E,2 z2 E,2 z2 | F,2 z2 G,2 z2 | C,2 z2 F,2 z2 | ^B,,2 z2 ^^C,2 z2 | D,2 z2 D,2 z2 | %15
 E,2 z2 C,2 z2 | F,,2 z2 F,,2 z2 | F,,2 z2 E,,2 z2 | D,,2 z2 G,,2 z2 | C,,2 z2 C,,2 z2 | %20
 A,,2 z2 B,,2 z2 | =E,2 z2 ^E,2 z2 | D,2 z2 D,2 z2 | D,2 z2 D,2 z2 |[M:3/8] G,, z z | x3 | x3 | %27
 x3 | x3 | z E,/D,/E,/F,/ | G,3- | G,E,A, | x3 | x3 | x3 | x3 | x3 | x3 | x3 | x3 | x3 | x3 | x3 | %43
 x3 | x3 | x3 | x3 | x3 | z2 z/ F,/ | E,3 |[M:4/4] x8 | x8 | x8 | x8 | x8 | x8 | x8 | x8 | x8 | %59
 x8 | x8 | x8 | x8 | x8 | x8 | x8 | x8 | x8 | x8 | x8 | x8 | x8 | x8 | x8 | x8 | x8 | x8 | x8 | %78
 x8 | z4 A, C3 | D z z2 z4 | x8 | %82
 G,,2- G,,-G,,/4A,,/4G,,/4^^F,,/4 G,,2- G,,/4A,,/4^B,,/4C,/4D,/4E,/4^F,/4D,/4 | z2 G,,2 C,,4- | %84
 C,,8- | !fermata!C,,8 |] %86
V:5
 x8 | x8 | x8 | x8 | x8 | x8 | x8 | x8 | x8 | x8 | x8 | x8 | x8 | x8 | x8 | x8 | x8 | x8 | x8 | %19
 x8 | x8 | x8 | x8 | x8 |[M:3/8] x3 | x3 | x3 | x3 | x3 | x3 | x3 | x3 | x3 | x3 | x3 | x3 | x3 | %37
 x3 | x3 | x3 | x3 | x3 | x3 | x3 | x3 | x3 | x3 | x3 | x3 | x3 |[M:4/4] x8 | x8 | x8 | x8 | x8 | %55
 x8 | x8 | x8 | x8 | x8 | x8 | x8 | x8 | x8 | x8 | x8 | x8 | x8 | x8 | x8 | x8 | x8 | x8 | x8 | %74
 x8 | x8 | x8 | x8 | x8 | z4 z2[I:staff +1] =E2 | x8 | x8 |[I:staff -1] C/D/G,- G,2 z4 | x8 | x8 | %85
 x8 |] %86

